images/3234063.svg

<?xml version="1.0" encoding="UTF-8"?>
<svg xmlns="http://www.w3.org/2000/svg" xmlns:xlink="http://www.w3.org/1999/xlink" width="300pt" height="300pt" viewBox="0 0 300 300" version="1.1">
<defs>
<g>
<symbol overflow="visible" id="glyph0-0">
<path style="stroke:none;" d="M 0.453125 1.59375 L 0.453125 -6.34375 L 4.953125 -6.34375 L 4.953125 1.59375 Z M 0.953125 1.09375 L 4.453125 1.09375 L 4.453125 -5.84375 L 0.953125 -5.84375 Z M 0.953125 1.09375 "/>
</symbol>
<symbol overflow="visible" id="glyph0-1">
<path style="stroke:none;" d="M 3.546875 -5.953125 C 2.898438 -5.953125 2.382812 -5.710938 2 -5.234375 C 1.625 -4.753906 1.4375 -4.101562 1.4375 -3.28125 C 1.4375 -2.445312 1.625 -1.789062 2 -1.3125 C 2.382812 -0.832031 2.898438 -0.59375 3.546875 -0.59375 C 4.191406 -0.59375 4.703125 -0.832031 5.078125 -1.3125 C 5.453125 -1.789062 5.640625 -2.445312 5.640625 -3.28125 C 5.640625 -4.101562 5.453125 -4.753906 5.078125 -5.234375 C 4.703125 -5.710938 4.191406 -5.953125 3.546875 -5.953125 Z M 3.546875 -6.6875 C 4.460938 -6.6875 5.195312 -6.375 5.75 -5.75 C 6.300781 -5.132812 6.578125 -4.3125 6.578125 -3.28125 C 6.578125 -2.238281 6.300781 -1.410156 5.75 -0.796875 C 5.195312 -0.179688 4.460938 0.125 3.546875 0.125 C 2.617188 0.125 1.878906 -0.179688 1.328125 -0.796875 C 0.773438 -1.410156 0.5 -2.238281 0.5 -3.28125 C 0.5 -4.3125 0.773438 -5.132812 1.328125 -5.75 C 1.878906 -6.375 2.617188 -6.6875 3.546875 -6.6875 Z M 3.546875 -6.6875 "/>
</symbol>
<symbol overflow="visible" id="glyph0-2">
<path style="stroke:none;" d="M 0.890625 -6.5625 L 2.078125 -6.5625 L 4.984375 -1.078125 L 4.984375 -6.5625 L 5.84375 -6.5625 L 5.84375 0 L 4.65625 0 L 1.75 -5.484375 L 1.75 0 L 0.890625 0 Z M 0.890625 -6.5625 "/>
</symbol>
<symbol overflow="visible" id="glyph0-3">
<path style="stroke:none;" d="M 0.890625 -6.5625 L 1.765625 -6.5625 L 1.765625 -3.875 L 5 -3.875 L 5 -6.5625 L 5.890625 -6.5625 L 5.890625 0 L 5 0 L 5 -3.125 L 1.765625 -3.125 L 1.765625 0 L 0.890625 0 Z M 0.890625 -6.5625 "/>
</symbol>
</g>
</defs>
<g id="surface35445">
<rect x="0" y="0" width="300" height="300" style="fill:rgb(100%,100%,100%);fill-opacity:1;stroke:none;"/>
<path style="fill:none;stroke-width:1.2;stroke-linecap:butt;stroke-linejoin:miter;stroke:rgb(0%,0%,0%);stroke-opacity:1;stroke-miterlimit:10;" d="M 35.25 165.171875 L 42.113281 172.410156 "/>
<path style="fill:none;stroke-width:1.2;stroke-linecap:butt;stroke-linejoin:miter;stroke:rgb(100%,0%,0%);stroke-opacity:1;stroke-miterlimit:10;" d="M 42.113281 172.410156 L 48.980469 179.644531 "/>
<path style="fill:none;stroke-width:1.2;stroke-linecap:butt;stroke-linejoin:miter;stroke:rgb(100%,0%,0%);stroke-opacity:1;stroke-miterlimit:10;" d="M 48.980469 179.644531 L 58.679688 177.316406 "/>
<path style="fill:none;stroke-width:1.2;stroke-linecap:butt;stroke-linejoin:miter;stroke:rgb(0%,0%,0%);stroke-opacity:1;stroke-miterlimit:10;" d="M 58.679688 177.316406 L 68.378906 174.992188 "/>
<path style=" stroke:none;fill-rule:nonzero;fill:rgb(100%,100%,100%);fill-opacity:1;" d="M 44.980469 174.144531 L 52.980469 174.144531 L 52.980469 185.144531 L 44.980469 185.144531 Z M 44.980469 174.144531 "/>
<g style="fill:rgb(100%,0%,0%);fill-opacity:1;">
  <use xlink:href="#glyph0-1" x="44.980469" y="182.807617"/>
</g>
<path style="fill:none;stroke-width:1.2;stroke-linecap:butt;stroke-linejoin:miter;stroke:rgb(0%,0%,0%);stroke-opacity:1;stroke-miterlimit:10;" d="M 68.378906 174.992188 L 74.046875 155.863281 "/>
<path style="fill:none;stroke-width:1.2;stroke-linecap:butt;stroke-linejoin:miter;stroke:rgb(0%,0%,0%);stroke-opacity:1;stroke-miterlimit:10;" d="M 73.445312 174.414062 L 77.980469 159.109375 "/>
<path style="fill:none;stroke-width:1.2;stroke-linecap:butt;stroke-linejoin:miter;stroke:rgb(0%,0%,0%);stroke-opacity:1;stroke-miterlimit:10;" d="M 82.105469 189.464844 L 68.378906 174.992188 "/>
<path style="fill:none;stroke-width:1.2;stroke-linecap:butt;stroke-linejoin:miter;stroke:rgb(0%,0%,0%);stroke-opacity:1;stroke-miterlimit:10;" d="M 74.046875 155.863281 L 93.445312 151.210938 "/>
<path style="fill:none;stroke-width:1.2;stroke-linecap:butt;stroke-linejoin:miter;stroke:rgb(0%,0%,0%);stroke-opacity:1;stroke-miterlimit:10;" d="M 93.445312 151.210938 L 107.171875 165.683594 "/>
<path style="fill:none;stroke-width:1.2;stroke-linecap:butt;stroke-linejoin:miter;stroke:rgb(0%,0%,0%);stroke-opacity:1;stroke-miterlimit:10;" d="M 91.410156 155.890625 L 102.394531 167.464844 "/>
<path style="fill:none;stroke-width:1.2;stroke-linecap:butt;stroke-linejoin:miter;stroke:rgb(0%,0%,0%);stroke-opacity:1;stroke-miterlimit:10;" d="M 107.171875 165.683594 L 101.503906 184.808594 "/>
<path style="fill:none;stroke-width:1.2;stroke-linecap:butt;stroke-linejoin:miter;stroke:rgb(0%,0%,0%);stroke-opacity:1;stroke-miterlimit:10;" d="M 107.171875 165.683594 L 126.570312 161.03125 "/>
<path style="fill:none;stroke-width:1.2;stroke-linecap:butt;stroke-linejoin:miter;stroke:rgb(0%,0%,0%);stroke-opacity:1;stroke-miterlimit:10;" d="M 101.503906 184.808594 L 82.105469 189.464844 "/>
<path style="fill:none;stroke-width:1.2;stroke-linecap:butt;stroke-linejoin:miter;stroke:rgb(0%,0%,0%);stroke-opacity:1;stroke-miterlimit:10;" d="M 98.46875 180.710938 L 82.953125 184.433594 "/>
<path style="fill:none;stroke-width:1.2;stroke-linecap:butt;stroke-linejoin:miter;stroke:rgb(0%,0%,0%);stroke-opacity:1;stroke-miterlimit:10;" d="M 126.570312 161.03125 L 133.4375 168.265625 "/>
<path style="fill:none;stroke-width:1.2;stroke-linecap:butt;stroke-linejoin:miter;stroke:rgb(0%,0%,100%);stroke-opacity:1;stroke-miterlimit:10;" d="M 133.4375 168.265625 L 140.300781 175.503906 "/>
<path style="fill:none;stroke-width:1.2;stroke-linecap:butt;stroke-linejoin:miter;stroke:rgb(0%,0%,0%);stroke-opacity:1;stroke-miterlimit:10;" d="M 131.351562 159.246094 L 136.839844 165.035156 "/>
<path style="fill:none;stroke-width:1.2;stroke-linecap:butt;stroke-linejoin:miter;stroke:rgb(0%,0%,100%);stroke-opacity:1;stroke-miterlimit:10;" d="M 136.839844 165.035156 L 142.332031 170.824219 "/>
<path style="fill:none;stroke-width:1.2;stroke-linecap:butt;stroke-linejoin:miter;stroke:rgb(0%,0%,0%);stroke-opacity:1;stroke-miterlimit:10;" d="M 132.242188 141.902344 L 126.570312 161.03125 "/>
<path style="fill:none;stroke-width:1.2;stroke-linecap:butt;stroke-linejoin:miter;stroke:rgb(0%,0%,100%);stroke-opacity:1;stroke-miterlimit:10;" d="M 140.300781 175.503906 L 150 173.175781 "/>
<path style="fill:none;stroke-width:1.2;stroke-linecap:butt;stroke-linejoin:miter;stroke:rgb(0%,0%,0%);stroke-opacity:1;stroke-miterlimit:10;" d="M 150 173.175781 L 159.699219 170.847656 "/>
<path style=" stroke:none;fill-rule:nonzero;fill:rgb(100%,100%,100%);fill-opacity:1;" d="M 137.300781 170.003906 L 144.300781 170.003906 L 144.300781 181.003906 L 137.300781 181.003906 Z M 137.300781 170.003906 "/>
<g style="fill:rgb(0%,0%,100%);fill-opacity:1;">
  <use xlink:href="#glyph0-2" x="137.300781" y="178.666992"/>
</g>
<path style="fill:none;stroke-width:1.2;stroke-linecap:butt;stroke-linejoin:miter;stroke:rgb(0%,0%,0%);stroke-opacity:1;stroke-miterlimit:10;" d="M 159.699219 170.847656 L 173.429688 185.320312 "/>
<path style="fill:none;stroke-width:1.2;stroke-linecap:butt;stroke-linejoin:miter;stroke:rgb(0%,0%,0%);stroke-opacity:1;stroke-miterlimit:10;" d="M 164.476562 169.066406 L 175.460938 180.644531 "/>
<path style="fill:none;stroke-width:1.2;stroke-linecap:butt;stroke-linejoin:miter;stroke:rgb(0%,0%,0%);stroke-opacity:1;stroke-miterlimit:10;" d="M 165.367188 151.722656 L 159.699219 170.847656 "/>
<path style="fill:none;stroke-width:1.2;stroke-linecap:butt;stroke-linejoin:miter;stroke:rgb(0%,0%,0%);stroke-opacity:1;stroke-miterlimit:10;" d="M 173.429688 185.320312 L 183.128906 182.996094 "/>
<path style="fill:none;stroke-width:1.2;stroke-linecap:butt;stroke-linejoin:miter;stroke:rgb(0%,0%,100%);stroke-opacity:1;stroke-miterlimit:10;" d="M 183.128906 182.996094 L 192.828125 180.667969 "/>
<path style="fill:none;stroke-width:1.2;stroke-linecap:butt;stroke-linejoin:miter;stroke:rgb(0%,0%,100%);stroke-opacity:1;stroke-miterlimit:10;" d="M 192.828125 180.667969 L 195.660156 171.105469 "/>
<path style="fill:none;stroke-width:1.2;stroke-linecap:butt;stroke-linejoin:miter;stroke:rgb(0%,0%,0%);stroke-opacity:1;stroke-miterlimit:10;" d="M 195.660156 171.105469 L 198.496094 161.542969 "/>
<path style="fill:none;stroke-width:1.2;stroke-linecap:butt;stroke-linejoin:miter;stroke:rgb(0%,0%,100%);stroke-opacity:1;stroke-miterlimit:10;" d="M 188.894531 177.421875 L 191.160156 169.769531 "/>
<path style="fill:none;stroke-width:1.2;stroke-linecap:butt;stroke-linejoin:miter;stroke:rgb(0%,0%,0%);stroke-opacity:1;stroke-miterlimit:10;" d="M 191.160156 169.769531 L 193.429688 162.121094 "/>
<path style=" stroke:none;fill-rule:nonzero;fill:rgb(100%,100%,100%);fill-opacity:1;" d="M 189.828125 175.167969 L 196.828125 175.167969 L 196.828125 186.167969 L 189.828125 186.167969 Z M 189.828125 175.167969 "/>
<g style="fill:rgb(0%,0%,100%);fill-opacity:1;">
  <use xlink:href="#glyph0-2" x="189.828125" y="183.831055"/>
</g>
<path style="fill:none;stroke-width:1.2;stroke-linecap:butt;stroke-linejoin:miter;stroke:rgb(0%,0%,0%);stroke-opacity:1;stroke-miterlimit:10;" d="M 198.496094 161.542969 L 191.628906 154.304688 "/>
<path style="fill:none;stroke-width:1.2;stroke-linecap:butt;stroke-linejoin:miter;stroke:rgb(0%,0%,100%);stroke-opacity:1;stroke-miterlimit:10;" d="M 191.628906 154.304688 L 184.765625 147.070312 "/>
<path style="fill:none;stroke-width:1.2;stroke-linecap:butt;stroke-linejoin:miter;stroke:rgb(0%,0%,0%);stroke-opacity:1;stroke-miterlimit:10;" d="M 198.496094 161.542969 L 208.195312 159.214844 "/>
<path style="fill:none;stroke-width:1.2;stroke-linecap:butt;stroke-linejoin:miter;stroke:rgb(0%,0%,100%);stroke-opacity:1;stroke-miterlimit:10;" d="M 208.195312 159.214844 L 217.894531 156.886719 "/>
<path style="fill:none;stroke-width:1.2;stroke-linecap:butt;stroke-linejoin:miter;stroke:rgb(0%,0%,100%);stroke-opacity:1;stroke-miterlimit:10;" d="M 184.765625 147.070312 L 175.066406 149.394531 "/>
<path style="fill:none;stroke-width:1.2;stroke-linecap:butt;stroke-linejoin:miter;stroke:rgb(0%,0%,0%);stroke-opacity:1;stroke-miterlimit:10;" d="M 175.066406 149.394531 L 165.367188 151.722656 "/>
<path style="fill:none;stroke-width:1.2;stroke-linecap:butt;stroke-linejoin:miter;stroke:rgb(0%,0%,100%);stroke-opacity:1;stroke-miterlimit:10;" d="M 183.921875 152.097656 L 176.160156 153.960938 "/>
<path style="fill:none;stroke-width:1.2;stroke-linecap:butt;stroke-linejoin:miter;stroke:rgb(0%,0%,0%);stroke-opacity:1;stroke-miterlimit:10;" d="M 176.160156 153.960938 L 168.402344 155.820312 "/>
<path style=" stroke:none;fill-rule:nonzero;fill:rgb(100%,100%,100%);fill-opacity:1;" d="M 181.765625 141.570312 L 188.765625 141.570312 L 188.765625 152.570312 L 181.765625 152.570312 Z M 181.765625 141.570312 "/>
<g style="fill:rgb(0%,0%,100%);fill-opacity:1;">
  <use xlink:href="#glyph0-2" x="181.765625" y="150.233398"/>
</g>
<path style="fill:none;stroke-width:1.2;stroke-linecap:butt;stroke-linejoin:miter;stroke:rgb(0%,0%,0%);stroke-opacity:1;stroke-miterlimit:10;" d="M 165.367188 151.722656 L 158.503906 144.484375 "/>
<path style="fill:none;stroke-width:1.2;stroke-linecap:butt;stroke-linejoin:miter;stroke:rgb(0%,0%,100%);stroke-opacity:1;stroke-miterlimit:10;" d="M 158.503906 144.484375 L 151.636719 137.25 "/>
<path style="fill:none;stroke-width:1.2;stroke-linecap:butt;stroke-linejoin:miter;stroke:rgb(0%,0%,100%);stroke-opacity:1;stroke-miterlimit:10;" d="M 151.636719 137.25 L 141.941406 139.578125 "/>
<path style="fill:none;stroke-width:1.2;stroke-linecap:butt;stroke-linejoin:miter;stroke:rgb(0%,0%,0%);stroke-opacity:1;stroke-miterlimit:10;" d="M 141.941406 139.578125 L 132.242188 141.902344 "/>
<path style="fill:none;stroke-width:1.2;stroke-linecap:butt;stroke-linejoin:miter;stroke:rgb(0%,0%,100%);stroke-opacity:1;stroke-miterlimit:10;" d="M 151.636719 137.25 L 154.472656 127.6875 "/>
<path style="fill:none;stroke-width:1.2;stroke-linecap:butt;stroke-linejoin:miter;stroke:rgb(0%,0%,0%);stroke-opacity:1;stroke-miterlimit:10;" d="M 154.472656 127.6875 L 157.308594 118.125 "/>
<path style=" stroke:none;fill-rule:nonzero;fill:rgb(100%,100%,100%);fill-opacity:1;" d="M 148.636719 131.75 L 155.636719 131.75 L 155.636719 142.75 L 148.636719 142.75 Z M 148.636719 131.75 "/>
<g style="fill:rgb(0%,0%,100%);fill-opacity:1;">
  <use xlink:href="#glyph0-2" x="148.636719" y="140.413086"/>
</g>
<path style="fill:none;stroke-width:1.2;stroke-linecap:butt;stroke-linejoin:miter;stroke:rgb(0%,0%,0%);stroke-opacity:1;stroke-miterlimit:10;" d="M 133.941406 140.289062 L 127.078125 133.050781 "/>
<path style="fill:none;stroke-width:1.2;stroke-linecap:butt;stroke-linejoin:miter;stroke:rgb(100%,0%,0%);stroke-opacity:1;stroke-miterlimit:10;" d="M 127.078125 133.050781 L 120.214844 125.816406 "/>
<path style="fill:none;stroke-width:1.2;stroke-linecap:butt;stroke-linejoin:miter;stroke:rgb(0%,0%,0%);stroke-opacity:1;stroke-miterlimit:10;" d="M 130.539062 143.519531 L 123.671875 136.28125 "/>
<path style="fill:none;stroke-width:1.2;stroke-linecap:butt;stroke-linejoin:miter;stroke:rgb(100%,0%,0%);stroke-opacity:1;stroke-miterlimit:10;" d="M 123.671875 136.28125 L 116.808594 129.046875 "/>
<path style=" stroke:none;fill-rule:nonzero;fill:rgb(100%,100%,100%);fill-opacity:1;" d="M 110.511719 121.929688 L 118.511719 121.929688 L 118.511719 132.929688 L 110.511719 132.929688 Z M 110.511719 121.929688 "/>
<g style="fill:rgb(100%,0%,0%);fill-opacity:1;">
  <use xlink:href="#glyph0-1" x="110.511719" y="130.592773"/>
</g>
<path style=" stroke:none;fill-rule:nonzero;fill:rgb(0%,0%,0%);fill-opacity:1;" d="M 176.707031 113.46875 L 156.484375 114.699219 L 158.128906 121.546875 Z M 176.707031 113.46875 "/>
<path style="fill:none;stroke-width:1.2;stroke-linecap:butt;stroke-linejoin:miter;stroke:rgb(0%,0%,0%);stroke-opacity:1;stroke-miterlimit:10;" d="M 176.707031 113.46875 L 184.34375 95.042969 "/>
<path style="fill:none;stroke-width:1.2;stroke-linecap:butt;stroke-linejoin:miter;stroke:rgb(100%,0%,0%);stroke-opacity:1;stroke-miterlimit:10;" d="M 191.871094 126.429688 L 184.289062 119.949219 "/>
<path style="fill:none;stroke-width:1.2;stroke-linecap:butt;stroke-linejoin:miter;stroke:rgb(0%,0%,0%);stroke-opacity:1;stroke-miterlimit:10;" d="M 184.289062 119.949219 L 176.707031 113.46875 "/>
<path style="fill:none;stroke-width:1.2;stroke-linecap:butt;stroke-linejoin:miter;stroke:rgb(0%,0%,0%);stroke-opacity:1;stroke-miterlimit:10;" d="M 184.34375 95.042969 L 204.230469 96.609375 "/>
<path style="fill:none;stroke-width:1.2;stroke-linecap:butt;stroke-linejoin:miter;stroke:rgb(0%,0%,0%);stroke-opacity:1;stroke-miterlimit:10;" d="M 204.230469 96.609375 L 208.882812 116.007812 "/>
<path style="fill:none;stroke-width:1.2;stroke-linecap:butt;stroke-linejoin:miter;stroke:rgb(0%,0%,0%);stroke-opacity:1;stroke-miterlimit:10;" d="M 208.882812 116.007812 L 200.378906 121.21875 "/>
<path style="fill:none;stroke-width:1.2;stroke-linecap:butt;stroke-linejoin:miter;stroke:rgb(100%,0%,0%);stroke-opacity:1;stroke-miterlimit:10;" d="M 200.378906 121.21875 L 191.871094 126.429688 "/>
<path style=" stroke:none;fill-rule:nonzero;fill:rgb(100%,100%,100%);fill-opacity:1;" d="M 187.871094 120.929688 L 195.871094 120.929688 L 195.871094 131.929688 L 187.871094 131.929688 Z M 187.871094 120.929688 "/>
<g style="fill:rgb(100%,0%,0%);fill-opacity:1;">
  <use xlink:href="#glyph0-1" x="187.871094" y="129.592773"/>
</g>
<path style="fill:none;stroke-width:1.2;stroke-linecap:butt;stroke-linejoin:miter;stroke:rgb(0%,0%,100%);stroke-opacity:1;stroke-miterlimit:10;" d="M 217.894531 156.886719 L 224.757812 164.125 "/>
<path style="fill:none;stroke-width:1.2;stroke-linecap:butt;stroke-linejoin:miter;stroke:rgb(0%,0%,0%);stroke-opacity:1;stroke-miterlimit:10;" d="M 224.757812 164.125 L 231.621094 171.359375 "/>
<path style=" stroke:none;fill-rule:nonzero;fill:rgb(100%,100%,100%);fill-opacity:1;" d="M 210.894531 151.386719 L 224.894531 151.386719 L 224.894531 162.386719 L 210.894531 162.386719 Z M 210.894531 151.386719 "/>
<g style="fill:rgb(0%,0%,100%);fill-opacity:1;">
  <use xlink:href="#glyph0-2" x="210.894531" y="160.049805"/>
  <use xlink:href="#glyph0-3" x="217.87207" y="160.049805"/>
</g>
<path style="fill:none;stroke-width:1.2;stroke-linecap:butt;stroke-linejoin:miter;stroke:rgb(0%,0%,0%);stroke-opacity:1;stroke-miterlimit:10;" d="M 231.621094 171.359375 L 225.953125 190.484375 "/>
<path style="fill:none;stroke-width:1.2;stroke-linecap:butt;stroke-linejoin:miter;stroke:rgb(0%,0%,0%);stroke-opacity:1;stroke-miterlimit:10;" d="M 235.554688 174.605469 L 231.019531 189.90625 "/>
<path style="fill:none;stroke-width:1.2;stroke-linecap:butt;stroke-linejoin:miter;stroke:rgb(0%,0%,0%);stroke-opacity:1;stroke-miterlimit:10;" d="M 251.019531 166.707031 L 231.621094 171.359375 "/>
<path style="fill:none;stroke-width:1.2;stroke-linecap:butt;stroke-linejoin:miter;stroke:rgb(0%,0%,0%);stroke-opacity:1;stroke-miterlimit:10;" d="M 225.953125 190.484375 L 239.683594 204.957031 "/>
<path style="fill:none;stroke-width:1.2;stroke-linecap:butt;stroke-linejoin:miter;stroke:rgb(0%,0%,0%);stroke-opacity:1;stroke-miterlimit:10;" d="M 239.683594 204.957031 L 259.082031 200.304688 "/>
<path style="fill:none;stroke-width:1.2;stroke-linecap:butt;stroke-linejoin:miter;stroke:rgb(0%,0%,0%);stroke-opacity:1;stroke-miterlimit:10;" d="M 240.527344 199.929688 L 256.046875 196.207031 "/>
<path style="fill:none;stroke-width:1.2;stroke-linecap:butt;stroke-linejoin:miter;stroke:rgb(0%,0%,0%);stroke-opacity:1;stroke-miterlimit:10;" d="M 259.082031 200.304688 L 264.75 181.179688 "/>
<path style="fill:none;stroke-width:1.2;stroke-linecap:butt;stroke-linejoin:miter;stroke:rgb(0%,0%,0%);stroke-opacity:1;stroke-miterlimit:10;" d="M 264.75 181.179688 L 251.019531 166.707031 "/>
<path style="fill:none;stroke-width:1.2;stroke-linecap:butt;stroke-linejoin:miter;stroke:rgb(0%,0%,0%);stroke-opacity:1;stroke-miterlimit:10;" d="M 259.972656 182.960938 L 248.988281 171.382812 "/>
</g>
</svg>

<svg xmlns="http://www.w3.org/2000/svg" xmlns:xlink="http://www.w3.org/1999/xlink" width="300pt" height="300pt" viewBox="0 0 300 300"><defs><symbol overflow="visible"><path d="M.453 1.594v-7.938h4.5v7.938zm.5-.5h3.5v-6.938h-3.5zm0 0"/></symbol><symbol overflow="visible" id="a"><path d="M3.547-5.953c-.65 0-1.164.242-1.547.72-.375.48-.563 1.13-.563 1.952 0 .835.188 1.49.563 1.967.383.48.898.72 1.547.72.644 0 1.156-.24 1.53-.72.376-.476.564-1.132.564-1.968 0-.822-.187-1.474-.562-1.954-.375-.477-.887-.72-1.53-.72zm0-.734c.914 0 1.648.312 2.203.937.55.617.828 1.438.828 2.47 0 1.042-.277 1.87-.828 2.483-.555.617-1.29.922-2.203.922-.93 0-1.668-.305-2.22-.922C.774-1.41.5-2.237.5-3.28c0-1.033.273-1.853.828-2.47.55-.625 1.29-.938 2.22-.938zm0 0"/></symbol><symbol overflow="visible" id="b"><path d="M.89-6.563H2.08l2.906 5.485v-5.484h.86V0H4.656L1.75-5.484V0H.89zm0 0"/></symbol><symbol overflow="visible" id="c"><path d="M.89-6.563h.876v2.688H5v-2.688h.89V0H5v-3.125H1.766V0H.89zm0 0"/></symbol></defs><g><path fill="#fff" d="M0 0h300v300H0z"/><path d="M35.25 165.172l6.863 7.238" stroke-width="1.2" stroke="#000" stroke-miterlimit="10" fill="none"/><path d="M42.113 172.41l6.867 7.235M48.98 179.645l9.7-2.33" stroke-width="1.2" stroke="#f00" stroke-miterlimit="10" fill="none"/><path d="M58.68 177.316l9.7-2.324" stroke-width="1.2" stroke="#000" stroke-miterlimit="10" fill="none"/><path d="M44.98 174.145h8v11h-8zm0 0" fill="#fff"/><use xlink:href="#a" x="44.98" y="182.808" fill="#f00"/><path d="M68.38 174.992l5.667-19.13M73.445 174.414l4.535-15.305M82.105 189.465L68.38 174.992M74.047 155.863l19.398-4.652M93.445 151.21l13.727 14.474M91.41 155.89l10.985 11.575M107.172 165.684l-5.668 19.125M107.172 165.684l19.398-4.653M101.504 184.81l-19.4 4.655M98.47 180.71l-15.517 3.724M126.57 161.03l6.868 7.236" stroke-width="1.2" stroke="#000" stroke-miterlimit="10" fill="none"/><path d="M133.438 168.266l6.863 7.238" stroke-width="1.2" stroke="#00f" stroke-miterlimit="10" fill="none"/><path d="M131.352 159.246l5.488 5.79" stroke-width="1.2" stroke="#000" stroke-miterlimit="10" fill="none"/><path d="M136.84 165.035l5.492 5.79" stroke-width="1.2" stroke="#00f" stroke-miterlimit="10" fill="none"/><path d="M132.242 141.902l-5.672 19.13" stroke-width="1.2" stroke="#000" stroke-miterlimit="10" fill="none"/><path d="M140.3 175.504l9.7-2.328" stroke-width="1.2" stroke="#00f" stroke-miterlimit="10" fill="none"/><path d="M150 173.176l9.7-2.328" stroke-width="1.2" stroke="#000" stroke-miterlimit="10" fill="none"/><path d="M137.3 170.004h7v11h-7zm0 0" fill="#fff"/><use xlink:href="#b" x="137.301" y="178.667" fill="#00f"/><path d="M159.7 170.848l13.73 14.472M164.477 169.066l10.984 11.58M165.367 151.723l-5.668 19.125M173.43 185.32l9.7-2.324" stroke-width="1.2" stroke="#000" stroke-miterlimit="10" fill="none"/><path d="M183.13 182.996l9.698-2.328M192.828 180.668l2.832-9.563" stroke-width="1.2" stroke="#00f" stroke-miterlimit="10" fill="none"/><path d="M195.66 171.105l2.836-9.562" stroke-width="1.2" stroke="#000" stroke-miterlimit="10" fill="none"/><path d="M188.895 177.422l2.265-7.652" stroke-width="1.2" stroke="#00f" stroke-miterlimit="10" fill="none"/><path d="M191.16 169.77l2.27-7.65" stroke-width="1.2" stroke="#000" stroke-miterlimit="10" fill="none"/><path d="M189.828 175.168h7v11h-7zm0 0" fill="#fff"/><use xlink:href="#b" x="189.828" y="183.831" fill="#00f"/><path d="M198.496 161.543l-6.867-7.238" stroke-width="1.2" stroke="#000" stroke-miterlimit="10" fill="none"/><path d="M191.63 154.305l-6.864-7.235" stroke-width="1.2" stroke="#00f" stroke-miterlimit="10" fill="none"/><path d="M198.496 161.543l9.7-2.328" stroke-width="1.2" stroke="#000" stroke-miterlimit="10" fill="none"/><path d="M208.195 159.215l9.7-2.328M184.766 147.07l-9.7 2.325" stroke-width="1.2" stroke="#00f" stroke-miterlimit="10" fill="none"/><path d="M175.066 149.395l-9.7 2.328" stroke-width="1.2" stroke="#000" stroke-miterlimit="10" fill="none"/><path d="M183.922 152.098l-7.762 1.863" stroke-width="1.2" stroke="#00f" stroke-miterlimit="10" fill="none"/><path d="M176.16 153.96l-7.758 1.86" stroke-width="1.2" stroke="#000" stroke-miterlimit="10" fill="none"/><path d="M181.766 141.57h7v11h-7zm0 0" fill="#fff"/><use xlink:href="#b" x="181.766" y="150.233" fill="#00f"/><path d="M165.367 151.723l-6.863-7.24" stroke-width="1.2" stroke="#000" stroke-miterlimit="10" fill="none"/><path d="M158.504 144.484l-6.867-7.234M151.637 137.25l-9.696 2.328" stroke-width="1.2" stroke="#00f" stroke-miterlimit="10" fill="none"/><path d="M141.94 139.578l-9.698 2.324" stroke-width="1.2" stroke="#000" stroke-miterlimit="10" fill="none"/><path d="M151.637 137.25l2.836-9.563" stroke-width="1.2" stroke="#00f" stroke-miterlimit="10" fill="none"/><path d="M154.473 127.688l2.836-9.563" stroke-width="1.2" stroke="#000" stroke-miterlimit="10" fill="none"/><path d="M148.637 131.75h7v11h-7zm0 0" fill="#fff"/><use xlink:href="#b" x="148.637" y="140.413" fill="#00f"/><path d="M133.94 140.29l-6.862-7.24" stroke-width="1.2" stroke="#000" stroke-miterlimit="10" fill="none"/><path d="M127.078 133.05l-6.863-7.234" stroke-width="1.2" stroke="#f00" stroke-miterlimit="10" fill="none"/><path d="M130.54 143.52l-6.868-7.24" stroke-width="1.2" stroke="#000" stroke-miterlimit="10" fill="none"/><path d="M123.672 136.28l-6.863-7.233" stroke-width="1.2" stroke="#f00" stroke-miterlimit="10" fill="none"/><path d="M110.512 121.93h8v11h-8zm0 0" fill="#fff"/><use xlink:href="#a" x="110.512" y="130.593" fill="#f00"/><path d="M176.707 113.47l-20.223 1.23 1.645 6.847zm0 0"/><path d="M176.707 113.47l7.637-18.427" stroke-width="1.2" stroke="#000" stroke-miterlimit="10" fill="none"/><path d="M191.87 126.43l-7.58-6.48" stroke-width="1.2" stroke="#f00" stroke-miterlimit="10" fill="none"/><path d="M184.29 119.95l-7.583-6.48M184.344 95.043l19.886 1.566M204.23 96.61l4.653 19.398M208.883 116.008l-8.504 5.21" stroke-width="1.2" stroke="#000" stroke-miterlimit="10" fill="none"/><path d="M200.38 121.22l-8.51 5.21" stroke-width="1.2" stroke="#f00" stroke-miterlimit="10" fill="none"/><path d="M187.87 120.93h8v11h-8zm0 0" fill="#fff"/><use xlink:href="#a" x="187.871" y="129.593" fill="#f00"/><path d="M217.895 156.887l6.863 7.238" stroke-width="1.2" stroke="#00f" stroke-miterlimit="10" fill="none"/><path d="M224.758 164.125l6.863 7.234" stroke-width="1.2" stroke="#000" stroke-miterlimit="10" fill="none"/><path d="M210.895 151.387h14v11h-14zm0 0" fill="#fff"/><g fill="#00f"><use xlink:href="#b" x="210.895" y="160.05"/><use xlink:href="#c" x="217.872" y="160.05"/></g><path d="M231.62 171.36l-5.667 19.124M235.555 174.605l-4.535 15.3M251.02 166.707l-19.4 4.652M225.953 190.484l13.73 14.473M239.684 204.957l19.398-4.652M240.527 199.93l15.52-3.723M259.082 200.305l5.668-19.125M264.75 181.18l-13.73-14.473M259.973 182.96l-10.985-11.577" stroke-width="1.2" stroke="#000" stroke-miterlimit="10" fill="none"/></g></svg>
